!!! OTL: Berkowitz395
!!! Chapter: 1
!!! Section: III
!!! Page: 97
!!! Mode: 
!!! Encoder: DJB
**kern
*staff1
*I"Piano
=1-
*clefF4
*k[f#c#]
*D:
*M6/8
4.r
8r
8r
8AA/
=2
8.F#\L
16E\K
8D\J
4E\
8AA/
=3
8.G\L
16F#\K
8E#\J
4F#\
8D#\
=4
8E\L
8G\
[8B\J
8B\L]
16A\L
16G\
16F#\
16E\JJ
=5
4.D\
8C#/
8r
8AA/
=6
8.G\L
16F#\K
8E#\J
4F#\
8D\
=7
!!linebreak:original
8.cn\L
16B\K
8A#\J
[4.B\
=8
8B\L]
16A\L
16G\
16F#\
16E\JJ
8D\L
8BB\
8G\J
=9
8.F#\L
16G\K
8E\J
8D\
4r
==
*-
